icon-themes/sifr_svg/cmd/sc_masterlayouts.svg

<svg viewBox="0 0 16 16" xmlns="http://www.w3.org/2000/svg"><path d="m2 2v5.07l2 1.12v-1.19h3v2.875l3.78 2.125h3.22v-10zm2 2h8v2h-8zm5 3h3v3h-3zm-8 .65v6.35h11.3zm2 3.35 2 1h-2z" fill="#555753"/></svg>

<svg xmlns="http://www.w3.org/2000/svg" viewBox="0 0 16 16">
  <path
     style="fill:#555753"
     d="M 2 2 L 2 7.07 L 4 8.19 L 4 7 L 7 7 L 7 9.875 L 10.78 12 L 14 12 L 14 2 L 2 2 z M 4 4 L 12 4 L 12 6 L 4 6 L 4 4 z M 9 7 L 12 7 L 12 10 L 9 10 L 9 7 z M 1 7.65 L 1 14 L 12.3 14 L 1 7.65 z M 3 11 L 5 12 L 3 12 L 3 11 z "
     />
</svg>
